packages/icons/svg/Outline/arrow-circle-down.svg

<svg fill="none" height="24" viewBox="0 0 24 24" width="24" xmlns="http://www.w3.org/2000/svg"><path clip-rule="evenodd" d="m14.3096 12.4142-1.31 1.25v-5.66404c0-.552-.447-1-1-1-.552 0-1 .448-1 1v5.58604l-1.293-1.293c-.39-.391-1.023-.391-1.414 0-.39.391-.39 1.023 0 1.414l3 2.999c.092.093.203.166.325.217s.252.077.382.077c.129 0 .257-.027.377-.076.061-.025.109-.068.162-.104.051-.033.107-.053.152-.096l3-2.863c.399-.381.414-1.014.033-1.414-.382-.4-1.014-.414-1.414-.033zm-2.3096 7.5859c-4.41103 0-8.00003-3.589-8.00003-8 0-4.41104 3.589-8.00003 8.00003-8.00003 4.411 0 8 3.58899 8 8.00003 0 4.411-3.589 8-8 8zm0-18.0001c-5.514 0-10 4.486-10 10s4.486 10 10 10 10-4.486 10-10-4.486-10-10-10z" fill="#6b7280" fill-rule="evenodd"/></svg>

<svg width="24" height="24" viewBox="0 0 24 24" fill="none" xmlns="http://www.w3.org/2000/svg">
<g id="Icon/Outline/arrow-circle-down">
<path id="Mask" fill-rule="evenodd" clip-rule="evenodd" d="M14.3096 12.4141L12.9996 13.6641V8.0001C12.9996 7.4481 12.5526 7.0001 11.9996 7.0001C11.4476 7.0001 10.9996 7.4481 10.9996 8.0001V13.5861L9.7066 12.2931C9.3166 11.9021 8.6836 11.9021 8.2926 12.2931C7.9026 12.6841 7.9026 13.3161 8.2926 13.7071L11.2926 16.7061C11.3846 16.7991 11.4956 16.8721 11.6176 16.9231C11.7396 16.9741 11.8696 17.0001 11.9996 17.0001C12.1286 17.0001 12.2566 16.9731 12.3766 16.9241C12.4376 16.8991 12.4856 16.8561 12.5386 16.8201C12.5896 16.7871 12.6456 16.7671 12.6906 16.7241L15.6906 13.8611C16.0896 13.4801 16.1046 12.8471 15.7236 12.4471C15.3416 12.0471 14.7096 12.0331 14.3096 12.4141ZM12 20C7.589 20 4 16.411 4 12C4 7.589 7.589 4 12 4C16.411 4 20 7.589 20 12C20 16.411 16.411 20 12 20ZM12 2C6.486 2 2 6.486 2 12C2 17.514 6.486 22 12 22C17.514 22 22 17.514 22 12C22 6.486 17.514 2 12 2Z" fill="#000000"/>
</g>
</svg>
